X:1
T:Rêveire
T:Rêveire
T:C.Debussy
C:C.Debussy
%%score { ( 1 4 ) | ( 2 3 5 ) }
L:1/8
Q:1/4=92
M:4/4
K:F
V:1 treble nm="Piano" snm="Pno."
V:4 treble 
V:2 treble 
V:3 treble 
V:5 treble 
V:1
"^Andno sans lenteur" z8 | z8[Q:1/4=90][Q:1/4=88] |!pp![Q:1/4=86] (g4 d4-[Q:1/4=92] | %3
 d2 ef g2[Q:1/4=88] ed |[Q:1/4=86] (3e2 c2 e2[Q:1/4=92] d4-) | d4[Q:1/4=88] (B2 d2 | %6
[Q:1/4=86] e2 f2[Q:1/4=92] c4- | c4[Q:1/4=88] G4[Q:1/4=86] |[Q:1/4=84] A8-)[Q:1/4=92] | %9
!<(! A8[Q:1/4=88][Q:1/4=86]!<)! |!p![Q:1/4=84] ((a4 e4-)[Q:1/4=92] | %11
 e2 ce[Q:1/4=88] d2[Q:1/4=84]!<(! B[Q:1/4=80]G)!<)! |!mf![Q:1/4=80] ((a4 e4-)[Q:1/4=92] | %13
 e2 ce[Q:1/4=88] d2[Q:1/4=86] B[Q:1/4=80]G) |[Q:1/4=84]"_dim." ((g4 d4-)[Q:1/4=92] | d2 Bd c2 AG | %16
 A2 EA F2[Q:1/4=84] DF | D4[Q:1/4=78] C4)[Q:1/4=76][Q:1/4=60] |[Q:1/4=88]!pp! _e8- | e4 _e4 | %20
 _e4 e4- |"_cresc." _e4[Q:1/4=86] c4 |[Q:1/4=84] d4[Q:1/4=88] d4- | d4[Q:1/4=86] ([Aa]2 [Bb]2 | %24
!mp![Q:1/4=84]"_cresc." [cc']2 [dd']2[Q:1/4=88] [Ada]4- | [Aa]4[Q:1/4=86] [Bb]2[Q:1/4=84] [dd']2) | %26
!f! ([f^c'f']4 [^cc']4)[Q:1/4=92] |!p! z2 (de[Q:1/4=88] f2[Q:1/4=86] f[Q:1/4=80]a) | %28
!f![Q:1/4=92] ([f^c'f']4 [^cc']4)[Q:1/4=86][Q:1/4=60] | %29
[Q:1/4=92]!p! z2 (de[Q:1/4=88] f2[Q:1/4=86] fa) | %30
[Q:1/4=92]"_dim." f2 (DE[Q:1/4=88] F2[Q:1/4=84] FA |[Q:1/4=92] F4 D4- | [=B,D]2 C2 c4) | %33
[Q:1/4=88] cegc'[Q:1/4=86] ge[Q:1/4=84]cG |!pp![Q:1/4=92] (_ecGc) (ecGc) | %35
 (_ecGc)[Q:1/4=88] (ec[Q:1/4=86]Gc) |[Q:1/4=92] (a^fdf) (afdf) | %37
 (a^fdf)[Q:1/4=88] (dA[Q:1/4=84]^FA) |!pp![Q:1/4=92] (_ecGc) (ecGc) | %39
!<(! (_ecGc)[Q:1/4=90] (ge[Q:1/4=88]ce)!<)! |[Q:1/4=92]!<(! (^g=ece)[Q:1/4=94] (gece) | %41
[Q:1/4=96] (^gece)[Q:1/4=92] (gc[Q:1/4=88]ge)!<)! |!mf![Q:1/4=92] (acAc) (acAc) | %43
 (acAc) (ac[Q:1/4=88]Ac) |[Q:1/4=80] (=b[Q:1/4=92]"_dim."f=Bf) (c'_bfb) | (c'bfb) (c'beb) | %46
!p![Q:1/4=88] (c'"_rit."acg)[Q:1/4=86] (d'adb[Q:1/4=60] | dADB[Q:1/4=82] A,2[Q:1/4=78] G,2) | %48
[Q:1/4=88] F,4 F4- | F4[Q:1/4=84] A4 |!p![Q:1/4=92] (.[df]2 .[=Be]2 .[Be]2 .[df]2 | %51
 .[df]2 .[=Be]2 .[Be]4) |!p! F2 E2 E2!>(! (3FAF!>)! |!pp! [=B,E]2 [_B,D]2[Q:1/4=88] C4[Q:1/4=84] | %54
!p![Q:1/4=92] (f2 e2 e2 (3fga | (3faf e2 [=Be]4) |!p! (E2 ^C2 C2 E2 | %57
[Q:1/4=88] [=C^F]2 [^D^G]2[Q:1/4=84] [=B,E]4)[Q:1/4=70] || %58
[K:E]!pp![Q:1/4=92] ([Acf]2 [Bdg]2 [GBe]2[Q:1/4=88] [egc']2 | %59
[Q:1/4=92] [Acf]2 (3[Bdg]fg [GBe]2[Q:1/4=88] [EGB]2) |[Q:1/4=92] ([DEG]2 [CEB]2 [B,EG]2 [G,CE]2 | %61
 [A,DF]4 [DAc]4[Q:1/4=88][Q:1/4=84] |[Q:1/4=92] [cf]2 [dg]2 [Be]2[Q:1/4=88] [ec']2 | %63
[Q:1/4=92] f2 (3gfg e2[Q:1/4=88] b2) |[Q:1/4=92] (c'2 e'2[Q:1/4=94]"_cresc." d'2 b2 | %65
[Q:1/4=96] c'2 e'2[Q:1/4=98] f'2 b2) |!mf![Q:1/4=100] (c'2 e'2 d'2 b2 | %67
 c'2 e'2[Q:1/4=90] f'2[Q:1/4=80] b2) || %68
[K:C]!p![Q:1/4=88] (3(g'gg' (3gg'g)[Q:1/4=90] (3(g'gg' (3gg'g) | %69
[Q:1/4=92] (3(g'gg' (3gg'g)[Q:1/4=94] (3(g'gg' (3gg'g) |!p![Q:1/4=92] (D2 E2 C2 A2 | %71
 D2 (3EDE[Q:1/4=88] C4)[Q:1/4=86] |[Q:1/4=84] (d2[Q:1/4=82] (3ede[Q:1/4=80] c4)[Q:1/4=92] | %73
!pp! (3ceg (3_bc'e' (3g'e'c' (3bge || %74
[M:3/4][Q:1/4=108] c_BG[Q:1/4=100] E[Q:1/4=90][I:staff +1]C[Q:1/4=80]=B, || %75
[K:F][M:4/4][Q:1/4=92][I:staff -1] g4 (g'd'c'b) | x2 ef (g'd'c'b) | (3e2 c2 e2 (g'd'c'b) | %78
 x4[Q:1/4=88] (g'd'c'b) |[Q:1/4=86] e2 f2[Q:1/4=92] (f'c'ba) | x4 (e'bag) | A8- | %82
!<(! A8[Q:1/4=88][Q:1/4=84][Q:1/4=80]!<)! |!p![Q:1/4=80] (a4 e4-[Q:1/4=92] | %84
!<(! e2 ce[Q:1/4=88] d2[Q:1/4=84] B!mp![Q:1/4=76]G)!<)! |!p![Q:1/4=80] (a4 e4-[Q:1/4=92] | %86
!<(! e2 ce[Q:1/4=88] d2[Q:1/4=84] B!mp![Q:1/4=76]G)!<)! |!p![Q:1/4=80] (g4 d4-[Q:1/4=92] | %88
!<(! d2 Bd[Q:1/4=88] c2[Q:1/4=84] A[Q:1/4=76]F!<)! |!mp![Q:1/4=80] g4 d4-[Q:1/4=92] | %90
 d2[Q:1/4=88] Bd[Q:1/4=84]!>(! [Gc]2[Q:1/4=80] [^Fd]2)!>)![Q:1/4=72] | %91
!p!"^un peu retenu"[Q:1/4=88] (!tenuto![DGB]2 !tenuto![^CEA]2 !tenuto![CEA]2 !tenuto![DGB]2 | %92
 !tenuto![DGB]2 !tenuto![^CEA]2 !tenuto![CEA]4) |[Q:1/4=86] ([GB]2 [EA]2 [EA]2 (3[GB]dB | %94
[Q:1/4=84] A2 G2 F4)[Q:1/4=80] |!p![Q:1/4=84] ([gb]2 [ea]2 [ea]2 [gb]2 | [gb]2 [ea]2 [ea]4) | %97
!pp![Q:1/4=80] (b2 a2 a2[Q:1/4=76] (3bd'b |[Q:1/4=72]!>(! a4[Q:1/4=68] g4)!>)! | %99
[Q:1/4=60]!ppp! [af'a']8[Q:1/4=56][Q:1/4=48] | !fermata![Aca]8 |] %101
V:2
!pp!"^tres doux et très expressif"!ped! (B,CDG- GDCB,-) | (B,CDG- GDCB,)!ped-up! | %2
!ped! (B,CDG- GDCB,-)!ped-up! |!ped! (B,CDG- GDCB,-)!ped-up! |!ped! (B,CDG- GDCB,-)!ped-up! | %5
!ped! (B,CDG- GDCB,)!ped-up! |!ped! (A,B,CF- FCB,A,)!ped-up! | %7
[K:bass]!ped! (G,A,B,E- EB,A,G,)!ped-up! |!ped! F,,C,- C,6!ped-up! |!ped! F,,C,- C,6!ped-up! | %10
!p!!ped! (D,,A,,D,F, A,CEC)!ped-up! |!ped! (A,F,A,C G,,D,G,B,)!ped-up! | %12
!p!!ped! (D,,A,,D,F, A,CEC)!ped-up! |!ped! (A,F,A,C G,,D,G,B,)!ped-up! | %14
!ped! (C,,G,,E,G, B,DED)!ped-up! |!ped! (B,DB,G, F,,C,F,A,)!ped-up! | %16
!ped! (A,,E,A,E, D,A,F,D,)!ped-up! | %17
!ped! (G,,F,G,[I:staff -1][G,B,])!ped-up!!ped![I:staff +1] (C,,G,,E,[I:staff -1][G,B,])!ped-up! | %18
!ped![I:staff +1] (F,,,F,,C,_E, G,A,C_E) | (G_ECA, G,_E,C,F,,)!ped-up! | %20
!ped! (F,,,F,,C,_E, G,A,C_E) | (G_ECA, G,_E,C,F,,)!ped-up! |!ped! (B,,,F,,B,,D, F,B,DF) | %23
 (DB,F,D, B,,F,,B,,,F,,)!ped-up! |!ped! (B,,,F,,B,,D, F,B,DF) | (DB,F,D, B,,F,,B,,,F,,)!ped-up! | %26
!ped! (G,,,G,,^C,F, A,^CFA)!ped-up! |!ped! (G,,D,F,A, DA,F,D,)!ped-up! | %28
!ped! (G,,,G,,^C,F, A,^CFA)!ped-up! |!ped! (G,,D,F,A, DA,F,D,)!ped-up! | %30
!ped! (G,,D,F,A, DA,F,D,)!ped-up! |!ped! (G,,D,F,A, =B,A,G,F,)!ped-up! |!ped! C,,G,,C,E, G,CEG | %33
 z8!ped-up! |"^espress."!ped! (C2 B,A, G,4- | G,2 A,B, C2 C_E)!ped-up! |!ped! [D^F]8 | %37
 .D,,4 D,,,4!ped-up! |!ped! (C2 B,A, G,4- | G,2 A,B, C2 C_E)!ped-up! |!ped! =E8- | %41
 E4 ^D2 E2!ped-up! |[K:treble]!ped! (G2 FE D4) | (D4 E2 F2)!ped-up! | %44
!ped! (F2 ED!ped-up!!ped! C4-!ped-up! |!ped! C4 D2 E2)!ped-up! | %46
[K:bass]!ped! E2 DC!ped-up!!ped! B,4- | B,4!ped-up!!ped! C,,C, B,E!ped-up! | %48
!ped! (F,,,F,, C,A,- A,2) z2 | z8!ped-up! |[K:treble]!ped! ([DA]2 [E^G]2 [EG]2 [DA]2 | %51
 [DA]2 [E^G]2 [EG]4)!ped-up! |[K:bass]!ped! [D,A,]2 [E,^G,]2 [E,G,]2 [D,A,]2 | %53
 F,2 E,2 [F,A,]4!ped-up! |[K:treble]!ped! ([DA]2 [E^G]2 [EG]2 [DA]2 | [DA]2 [E^G]2 [EG]4)!ped-up! | %56
[K:bass]!ped! ^G,2 ^F,2 =G,2 ^G,2 | A,2 =B,2 ^G,4!ped-up! ||[K:E]!ped! (B,,,2 B,,4 B,2- | %59
 B,2 B,,4!ped-up! B,2-) |!ped! (B,2 B,,4 B,2- | B,2 B,,4 F,2)!ped-up! | %62
[K:treble]!ped! A2 B2 G2 B2 | A2 B2 G2 B2!ped-up! |!ped! B8!ped-up! |!ped! B8!ped-up! | %66
!ped! B4 x4!ped-up! |!ped! B4 x4!ped-up! ||[K:C]!p!!ped! ([FB]4 [Ec]4)!ped-up! | %69
!ped! ([FB]4 [Ec]4)!ped-up! |[K:bass]!pp!!ped! (3F,G,F, (3G,F,G, (3E,G,E, (3G,E,G,!ped-up! | %71
!ped! (3(F,G,F, (3G,F,G,)!ped-up!!ped! (3(C,,G,,E, (3G,_B,C)!ped-up! | %72
[K:treble]!ped! (3(FGF (3GFG)!ped-up![K:bass]!ped! (3C,G,C[I:staff -1] (3EG_B |[I:staff +1] z8 || %74
[M:3/4] z6!ped-up! ||[K:F][M:4/4][K:treble]!ped! x4 d4-!ped-up! |!ped! d2 x2 g2 ed!ped-up! | %77
!ped! x4 d4-!ped-up! |!ped! d4 B2 d2!ped-up! |!ped! x4 c4-!ped-up! |!ped! c4 G4!ped-up! | %81
[K:bass]!ped! F,,C,- C,6!ped-up! |!ped! F,,C,- C,6!ped-up! |!p!!ped! (D,,A,,D,F, A,CEC)!ped-up! | %84
!ped! (A,F,A,C G,,D,G,B,)!ped-up! |!p!!ped! (D,,A,,D,F, A,CEC)!ped-up! | %86
!ped! (A,F,A,C G,,D,G,B,)!ped-up! |!ped! (_E,,B,,_E,G, B,_EGE!ped-up! | %88
!ped! B,G,_E,B,, _E,,C,F,A,!ped-up! |!ped! _E,,B,,_E,G, B,_EGE!ped-up! | %90
!ped! B,G,_E,B,,!ped-up!!ped! A,,E,A,,D,,!ped-up! |!ped! !>!G,,,8)!ped-up! |!ped! G,,8!ped-up! | %93
!ped! D2 ^C2 C2 D2!ped-up! |!ped! ^C4 z2[K:treble] A2!ped-up! |!ped! (d2 ^c2 c2 d2 | %96
 d2 ^c2 c4)!ped-up! |!ped! d2 ^c2 c2"^rit. e perdendosi" d2 | B8!ped-up! | %99
[K:bass]!ped! (F,,,F,,C,F, A, C2 F-) | F8!ped-up! |] %101
V:3
 B,8 | B,8 | B,8 | x8 | x8 | x8 | x8 |[K:bass] x8 | F,,8 | F,,8 | x8 | x8 | x8 | x8 | x8 | x8 | %16
 x8 | x8 | x8 | x8 | x8 | x8 | x8 | x8 | x8 | x8 | x8 | x8 | x8 | x8 | x8 | x8 | x8 | x8 | x8 | %35
 x8 | z2 .A,2 .D,2 .A,,2 | x8 | x8 | x8 | x8 | x8 |[K:treble] [A,C]8- | [A,C]8 | %44
 [^G,=B,]4 [=G,_B,]4 | [G,B,]8 |[K:bass] [F,A,]4 !arpeggio![G,,D,]4- | [G,,D,]4 x4 | x8 | x8 | %50
[K:treble] x8 | x8 |[K:bass] x8 | G,,2 C,,2 F,,2 F,,,2 |[K:treble] x8 | x8 |[K:bass] =B,,8- | %57
 B,,6 E,,2 ||[K:E] x8 | x8 | x8 | x8 |[K:treble] B,8 | B,6 G2 | (=G4 F4 | E4 D4) | (=G2 (3AGA F4) | %67
 (E2 (3FEF D4) ||[K:C] (D2 E2 C2) A2 | D2 (3EDE C2 A,2 |[K:bass] G,,8 | G,,8 | %72
[K:treble] G,4[K:bass] x4 | x8 ||[M:3/4] x6 ||[K:F][M:4/4][K:treble] (B,CDG) x4 | (B,CDG) x4 | %77
 (B,CDG) x4 | (B,CDG) x4 | (A,B,CF) x4 | (G,A,B,E) x4 |[K:bass] F,,8 | F,,8 | x8 | x8 | x8 | x8 | %87
 x8 | x8 | x8 | x8 | x8 | x8 | (G,8 | A,4 D,4)[K:treble] | x8 | G6 F2 | (E6 D2 | C8) |[K:bass] x8 | %100
 x8 |] %101
V:4
 x8 | x8 | x8 | x8 | x8 | x8 | x8 | x8 | z2 (A,F DA,CF) | z2 (A,F DA,CF) | x8 | x8 | x8 | x8 | x8 | %15
 x8 | x2 C2 x2 A,2 | x8 | ([cc']4 [Gg]4-) | ([Gg]2 [Aa][Bb] [cc']2 [Aa][Gg]) | %20
 (3([Aa]2 [Ff]2 [Aa]2) [Gg]4- | ([Gg]4 [_E_e]2 [Gg]2 | [Aa]2 [Bb]2 [Ff]4-) | [Ff]4 d4 | f8 | %25
 d4 d4 | x8 | x2 A6 | x8 | x2 A6 | A2 x2 x4 | x8 | x8 | x8 | [_EG]2 x2 [EG]2 x2 | %35
 [_EG]2 x2 [EG]2 x2 | [Ad]8 | [Ad]8 | [_EG]2 x2 [EG]2 x2 | [_EG]2 x2 [Gc]2 x2 | [^Gc]8 | [^Gc]8 | %42
 x8 | x8 | x4 c4- | c8 | x8 | x8 | x8 | x8 | x8 | x8 | D2 =B,2 B,2 D2 | x8 | d2 =B2 B2 d2 | %55
 d2 =B2 z2 =B,2- | B,2 A,2 ^A,2 =B,2 | x8 ||[K:E] x8 | x8 | x8 | x8 | x8 | c2 d2 B2 e2 | (e4 f4 | %65
 =g4 f4) | (e4 f4 | =g4 f4) ||[K:C] f'4 e'4 | f'4 e'4 | A,2 B,2 C4 | A,4 _B,4 | A4 _B4 | x8 || %74
[M:3/4] x6 ||[K:F][M:4/4] x8 | x8 | x8 | x8 | x8 | x8 | z2 (A,F DA,CF) | z2 (A,F DA,CF) | x8 | x8 | %85
 x8 | x8 | x8 | x8 | x8 | x4 C4 | x8 | x8 | x8 | E4[I:staff +1] A,4 | x8 | x8 | %97
[I:staff -1] g2 e2 e2 g2 | e8 | x8 | x8 |] %101
V:5
 x8 | x8 | x8 | x8 | x8 | x8 | x8 |[K:bass] x8 | x8 | x8 | x8 | x8 | x8 | x8 | x8 | x8 | x8 | x8 | %18
 x8 | x8 | x8 | x8 | x8 | x8 | x8 | x8 | x8 | x8 | x8 | x8 | x8 | x8 | x8 | x8 | x8 | x8 | x8 | %37
 x8 | x8 | x8 | x8 | x8 |[K:treble] x8 | x8 | x8 | x8 |[K:bass] x7/2 x/4-x/4- x4 | x8 | x8 | x8 | %50
[K:treble] x8 | x8 |[K:bass] x8 | x8 |[K:treble] x8 | x8 |[K:bass] x8 | x8 ||[K:E] x8 | x8 | x8 | %61
 x8 |[K:treble] x8 | x8 | x8 | x8 | x8 | x8 ||[K:C] x8 | x8 |[K:bass] x8 | x8 | %72
[K:treble] x4[K:bass] x4 | x8 ||[M:3/4] x6 ||[K:F][M:4/4][K:treble] x8 | x8 | x8 | x8 | x8 | x8 | %81
[K:bass] x8 | x8 | x8 | x8 | x8 | x8 | x8 | x8 | x8 | x8 | x8 | x8 | x8 | x6[K:treble] x2 | x8 | %96
 x8 | x8 | x8 |[K:bass] x8 | x8 |] %101

